X:1
T:Title
%%score 1 { 2 | ( 3 4 ) }
L:1/8
Q:1/4=45
M:4/4
K:D
V:1 treble nm="Voice"
V:2 treble nm="Pianoforte"
V:3 bass 
V:4 bass 
V:1
"^Langsam" z8 |!f! f2 g2 f2 g2 | f2 g2 f2 g2 | f4- f2 e2 | d4 c2 z2 | c2 d2 e2 d2 | c4 B2 c2 | %7
 d4- d2 c2 | B4 A2 z2 | f4 e4 | e4 d2 c2 | d4 c4 | B4 ^A4 | B4 z4 | z8 | B2 c2 B2 c2 | B4 ^A2 c2 | %17
 c4 B4 | ^A4 z4 | ^A2 B2 A2 B2 | ^A4 ^G2 F2 | F4 ^E4 | F4 z4 | c2 B2 c2 B2 | c2 B2 c2 B2 | d4 c4 | %26
 B4 ^A4 | B4 z4 | z8 | B4 c4 | d4 e4 | f4 z4 | e2 d2 c2 d2 | c4 B2 z2 | d2 c2 B2 c2 | B4 ^A4 | %36
 B4 z4 | z8 | !fermata!z8 |] %39
V:2
!f! ([df]2 [dg]2 [df]2 [dg]2) | ([df]2 [dg]2 [df]2 [dg]2) | ([df]2 [dg]2 [df]2 [dg]2) | %3
!p! [ce]2 [df]2 [ce]2 [df]2 | [ce]2 [df]2 [ce]2 [df]2 |!p! [Bd]2 [ce]2 [Bd]2 [ce]2 | %6
 [Bd]2 [ce]2 [Bd]2 [ce]2 | [Ac]2 [Bd]2 [Ac]2 [Bd]2 | [Ac]2 [Bd]2 [Ac]2 [Bd]2 | %9
 ([Ac]2 [Bd]2 [Ac]2 [Bd]2) | ([Ac]2 [Bd]2 [Ac]2 [Bd]2) | ([^GB]2 [^Ac]2 [GB]2 [Ac]2) | %12
 ([^GB]2 [^Ac]2 [GB]2 [Ac]2) | ([^GB]2 [^Ac]2 [GB]2 [Ac]2) | ([^GB]2 [^Ac]2 [GB]2 [Ac]2) | %15
 ([^GB]2 [^Ac]2 [GB]2 [Ac]2) | ([^GB]2 [^Ac]2 [GB]2 [Ac]2) | ([^GB]2 [^Ac]2 [GB]2 [Ac]2) | %18
 ([^GB]2 [^Ac]2 [GB]2 [Ac]2) | ([^GB]2 [^Ac]2 [GB]2 [Ac]2) | ([^GB]2 [^Ac]2 [GB]2 [Ac]2) | %21
 ([^GB]2 [^Ac]2 [GB]2 [Ac]2) | ([^GB]2 [^Ac]2 [GB]2 [Ac]2) | ([^GB]2 [^Ac]2 [GB]2 [Ac]2) | %24
 ([^GB]2 [^Ac]2 [GB]2 [Ac]2) | ([^GB]2 [^Ac]2 [GB]2 [Ac]2) | ([^GB]2 [^Ac]2 [GB]2 [Ac]2) | %27
 ([^GB]2 [^Ac]2 [GB]2 [Ac]2) | ([^GB]2 [^Ac]2 [GB]2 [Ac]2) | ([^GB]2 [^Ac]2 [GB]2 [Ac]2) | %30
 ([^GB]2 [^Ac]2 [GB]2 [Ac]2) | ([^GB]2 [^Ac]2 [GB]2 [Ac]2) | ([^GB]2 [^Ac]2 [GB]2 [Ac]2) | %33
 ([^GB]2 [^Ac]2 [GB]2 [Ac]2) | ([^GB]2 [^Ac]2 [GB]2 [Ac]2) | ([^GB]2 [^Ac]2 [GB]2 [Ac]2) | %36
 ([^GB]2 [^Ac]2 [GB]2 [Ac]2) | [^DB]4 [DB]4 | !fermata![^DB]8 |] %39
V:3
!ped! [B,,F,B,]8!ped-up! |!ped! ([B,,,B,,]4 [B,,,B,,]4)!ped-up! | %2
!ped! [B,,F,B,]4 [B,,F,B,]4!ped-up! |!ped! [F,CEF]4 [F,CEF]4!ped-up! | %4
!ped! [F,CEF]4 [F,CEF]4!ped-up! |!ped! [B,DE]4 [B,DE]4!ped-up! |!ped! [B,DE]4 [B,DE]4!ped-up! | %7
!ped! [B,,F,B,]4 [B,,F,B,]4!ped-up! |!ped! [B,,F,B,]4 [B,,F,B,]4!ped-up! | %9
!ped! [B,CE]4 [B,CE]4!ped-up! |!ped! [B,CE]4 [B,CE]4!ped-up! |!ped! [F,^A,C]4 [F,A,C]4!ped-up! | %12
!ped! [F,^A,C]4 [F,A,C]4!ped-up! |!ped! [B,,F,B,]4 [B,,F,B,]4!ped-up! | %14
!ped! [B,,F,B,]4 [B,,F,B,]4!ped-up! |!ped! [B,,F,B,]4 [B,,F,B,]4!ped-up! | %16
!ped! [B,,F,B,]4 [B,,F,B,]4!ped-up! |!ped! [B,,F,B,]4 [B,,F,B,]4!ped-up! | %18
!ped! [B,,F,B,]4 [B,,F,B,]4!ped-up! |!ped! [B,,F,B,]4 [B,,F,B,]4!ped-up! | %20
!ped! [B,,F,B,]4 [B,,F,B,]4!ped-up! |!ped! [C,^G,B,C]4 [C,G,B,C]4!ped-up! | %22
!ped! [C,^G,B,C]4 [C,G,B,C]4!ped-up! |!ped! [C,^G,B,C]4 [C,G,B,C]4!ped-up! | %24
!ped! [C,^G,B,C]4 [C,G,B,C]4!ped-up! |!ped! [F,^A,C]4 [F,A,C]4!ped-up! | %26
!ped! [F,^A,C]4 [F,A,C]4!ped-up! |!ped! [B,,F,B,]4 [B,,F,B,]4!ped-up! | %28
!ped! [B,,F,B,]4 [B,,F,B,]4!ped-up! |!ped! [B,,F,B,]4 [B,,F,B,]4!ped-up! | %30
!ped! [B,,F,B,]4 [B,,F,B,]4!ped-up! |!ped! [B,,F,B,]4 [B,,F,B,]4!ped-up! | %32
!ped! [B,,F,B,]4 [B,,F,B,]4!ped-up! |!ped! [B,,F,B,]4 [B,,F,B,]4!ped-up! | %34
!ped! [B,,F,B,]4 [B,,F,B,]4!ped-up! |!ped! [B,,F,B,]4 [B,,F,B,]4!ped-up! | %36
!ped! [B,,F,B,]4 [B,,F,B,]4!ped-up! |!ped! [B,,F,]4 [B,,F,]4!ped-up! | !fermata![B,,F,]8 |] %39
V:4
 x8 | x8 | x8 | x8 | x8 | x8 | x8 | x8 | x8 | x8 | x8 | x8 | x8 | x8 | x8 | x8 | x8 | x8 | x8 | %19
 x8 | x8 | x8 | x8 | x8 | x8 | x8 | x8 | x8 | x8 | x8 | x8 | x8 | x8 | x8 | x8 | x8 | x8 | %37
 B,,,4 B,,,4 | !fermata!B,,,8 |] %39

